svg/device/fax_line.svg

<svg xmlns="http://www.w3.org/2000/svg" width="24" height="24" viewBox="0 0 24 24"><g fill="none" fill-rule="evenodd"><path d="M24,0 L24,24 L0,24 L0,0 L24,0 Z M12.5935,23.2578 L12.5819,23.2595 L12.5109,23.295 L12.4919,23.2987 L12.4767,23.295 L12.4057,23.2595 C12.3958,23.2564 12.387,23.259 12.3821,23.2649 L12.378,23.2758 L12.3609,23.7031 L12.3659,23.7235 L12.3769,23.7357 L12.4805,23.8097 L12.4953,23.8136 L12.5071,23.8097 L12.6107,23.7357 L12.6233,23.7197 L12.6267,23.7031 L12.6096,23.2758 C12.6076,23.2657 12.601,23.2593 12.5935,23.2578 Z M12.8584,23.1453 L12.8445,23.1473 L12.6598,23.2397 L12.6499,23.2499 L12.6472,23.2611 L12.6651,23.6906 L12.6699,23.7034 L12.6784,23.7105 L12.8793,23.8032 C12.8914,23.8069 12.9022,23.803 12.9078,23.7952 L12.9118,23.7812 L12.8777,23.1665 C12.8753,23.1546 12.8674,23.147 12.8584,23.1453 Z M12.143,23.1473 C12.1332,23.1424 12.1222,23.1453 12.1156,23.1526 L12.1099,23.1665 L12.0758,23.7812 C12.0751,23.7927 12.0828,23.8019 12.0926,23.8046 L12.1083,23.8032 L12.3092,23.7105 L12.3186,23.7024 L12.3225,23.6906 L12.3404,23.2611 L12.3372,23.2485 L12.3278,23.2397 L12.143,23.1473 Z"/><path fill="#09244B" d="M7,3 C7.74707,3 8.39848,3.40961 8.74188,4.0165 C8.82638,4.00561 8.91253,4 9,4 L19,4 C20.1046,4 21,4.89543 21,6 L21,19 C21,20.1046 20.1046,21 19,21 L9,21 C8.63571,21 8.29418,20.9026 8,20.7324 C7.70583,20.9026 7.36429,21 7,21 L5,21 C3.89543,21 3,20.1046 3,19 L3,5 C3,3.89543 3.89543,3 5,3 L7,3 Z M19,6 L9,6 L9,19 L19,19 L19,6 Z M7,5 L5,5 L5,19 L7,19 L7,5 Z M12,16 C12.51285,16 12.9355092,16.386027 12.9932725,16.8833761 L13,17.01 C13,17.5623 12.5523,18.01 12,18.01 C11.48715,18.01 11.0644908,17.623973 11.0067275,17.1266239 L11,17 C11,16.4477 11.4477,16 12,16 Z M16,16 C16.51285,16 16.9355092,16.386027 16.9932725,16.8833761 L17,17.01 C17,17.5623 16.5523,18.01 16,18.01 C15.48715,18.01 15.0644908,17.623973 15.0067275,17.1266239 L15,17 C15,16.4477 15.4477,16 16,16 Z M12,13 C12.51285,13 12.9355092,13.386027 12.9932725,13.8833761 L13,14.01 C13,14.5623 12.5523,15.01 12,15.01 C11.48715,15.01 11.0644908,14.623973 11.0067275,14.1266239 L11,14 C11,13.4477 11.4477,13 12,13 Z M16,13 C16.51285,13 16.9355092,13.386027 16.9932725,13.8833761 L17,14.01 C17,14.5623 16.5523,15.01 16,15.01 C15.48715,15.01 15.0644908,14.623973 15.0067275,14.1266239 L15,14 C15,13.4477 15.4477,13 16,13 Z M16.5,7 C17.2796706,7 17.9204457,7.59488554 17.9931332,8.35553954 L18,8.5 L18,10.5 C18,11.2796706 17.4050879,11.9204457 16.6444558,11.9931332 L16.5,12 L11.5,12 C10.7203294,12 10.0795543,11.4050879 10.0068668,10.6444558 L10,10.5 L10,8.5 C10,7.72030118 10.5949121,7.079551 11.3555442,7.00686655 L11.5,7 L16.5,7 Z M16,9 L12,9 L12,10 L16,10 L16,9 Z"/></g></svg>

<svg xmlns="http://www.w3.org/2000/svg" width="24" height="24"><g fill="none" fill-rule="evenodd"><path d="M24 0v24H0V0zM12.594 23.258l-.012.002-.071.035-.02.004-.014-.004-.071-.036c-.01-.003-.019 0-.024.006l-.004.01-.017.428.005.02.01.013.104.074.015.004.012-.004.104-.074.012-.016.004-.017-.017-.427c-.002-.01-.009-.017-.016-.018m.264-.113-.014.002-.184.093-.01.01-.003.011.018.43.005.012.008.008.201.092c.012.004.023 0 .029-.008l.004-.014-.034-.614c-.003-.012-.01-.02-.02-.022m-.715.002a.023.023 0 0 0-.027.006l-.006.014-.034.614c0 .012.007.02.017.024l.015-.002.201-.093.01-.008.003-.011.018-.43-.003-.012-.01-.01z"/><path fill="#09244B" d="M7 3a2 2 0 0 1 1.742 1.016C8.826 4.007 8.912 4 9 4h10a2 2 0 0 1 2 2v13a2 2 0 0 1-2 2H9a1.99 1.99 0 0 1-1-.268A1.99 1.99 0 0 1 7 21H5a2 2 0 0 1-2-2V5a2 2 0 0 1 2-2zm12 3H9v13h10zM7 5H5v14h2zm5 11a1 1 0 0 1 .993.883l.007.127a1 1 0 0 1-1.993.117L11 17a1 1 0 0 1 1-1m4 0a1 1 0 0 1 .993.883l.007.127a1 1 0 0 1-1.993.117L15 17a1 1 0 0 1 1-1m-4-3a1 1 0 0 1 .993.883l.007.127a1 1 0 0 1-1.993.117L11 14a1 1 0 0 1 1-1m4 0a1 1 0 0 1 .993.883l.007.127a1 1 0 0 1-1.993.117L15 14a1 1 0 0 1 1-1m.5-6a1.5 1.5 0 0 1 1.493 1.356L18 8.5v2a1.5 1.5 0 0 1-1.356 1.493L16.5 12h-5a1.5 1.5 0 0 1-1.493-1.356L10 10.5v-2a1.5 1.5 0 0 1 1.356-1.493L11.5 7zM16 9h-4v1h4z"/></g></svg>
